X: 1150
T: Stan Treacy's Polka
B: australian traditional tunes wiki
B: kameruka bush dance
B: ralph
M:2/4
L:1/8
R: Polka
Q: 1/4=100
K:D
V:1 
|:"D"aA af|"G"gBB2|"A"cd/c/ Bc|1"D"BAA2:|2 ed"D"d2||
|:"D"FA de/d/|"G"cB BA/B/|"A"cd/c/ Bc|1"D"BAA2:|2"D"edd2||
% abcbook-tune_id 6342d53aee68dc9c279f2f90


% abcbook-boost 0
% abcbook-tablature 
% abcbook-transpose 
% abcbook-lastupdated 1665486576994
% abcbook-soundfonts 
% abcbook-repeats 3
% NFF Book 2007

